X: 1
T: Willafjord
I: Willafjord	R-91	D	reel
M: C|
R: reel
K: D
"D"A2FA zDFA| "G"B2GB zDGB| "D"A2FA zDFA| "A7"EFGA GFED|
"D"A2FA zDFA| "G"B2GB zDGB| "A7"ABcd efge| "D"f2d2 d2 z2 :|
|:e2| "D"f2df zAdf| "Em"geaf gfed| "D"f2df zAdf| "A7"e2ce zAce|
    "D"f2df zAdf| "Em"geaf gfed| "A"ABcd efge| "D"f2d2 d2 :|
%%text Roaring Jelly  R-91

